resources/haticons/SVG/format_paint.svg

<!-- Generated by IcoMoon.io -->
<svg version="1.1" xmlns="http://www.w3.org/2000/svg" width="24" height="24" viewBox="0 0 24 24">
<title>format_paint</title>
<path d="M18 3.984h3v8.016h-8.016v9q0 0.422-0.281 0.703t-0.703 0.281h-2.016q-0.422 0-0.703-0.281t-0.281-0.703v-11.016h9.984v-3.984h-0.984v0.984q0 0.422-0.281 0.727t-0.703 0.305h-12q-0.422 0-0.727-0.305t-0.305-0.727v-3.984q0-0.422 0.305-0.703t0.727-0.281h12q0.422 0 0.703 0.281t0.281 0.703v0.984z"></path>
</svg>

<svg xmlns="http://www.w3.org/2000/svg" width="24" height="24"><path d="M18 3.984h3V12h-8.016v9q0 .422-.281.703t-.703.281H9.984q-.422 0-.703-.281T9 21V9.984h9.984V6H18v.984q0 .422-.281.727t-.703.305h-12q-.422 0-.727-.305t-.305-.727V3q0-.422.305-.703t.727-.281h12q.422 0 .703.281T18 3v.984z"/></svg>
